X:1
T:McPhail, 86.86.77.86
T:McPhail, 86.86.77.86
T:Arranged by Matthew Lindsay McPhail (1854-1931)
T:Public Domain Courtesy of the Cyber Hymnal™
C:Arranged by Matthew Lindsay McPhail (1854-1931)
Z:Public Domain
Z:Courtesy of the Cyber Hymnal™
%%score ( 1 2 ) ( 3 4 )
L:1/8
Q:1/4=105
M:4/4
K:C
V:1 treble 
V:2 treble 
V:3 bass 
V:4 bass 
V:1
 [CE]>[B,D] | C3 C [Ec]3 [GB] | [GB]2 [FA]4 [CA]2 | [CG]3 [CE] [CE]2 (DC) | [B,D]6 [CE]>[B,D] | %5
 C3 C [Ec]3 [GB] | [GB]2 [FA]4 [FA]2 | [EG]3 [CE] [CE]2 ([B,D]>C) | C6 GG | [Gc]3 [Gc] [Gd]3 [Gd] | %10
 [Ge]6 GG | [Gc]3 [Gc] [Gd]3 [Gd] | [Ge]6 [Ge]>[Fd] | [Ec]3 [GB] [FA]2 [Fc]2 | %14
 [EG]2 [CE]4 [B,E]>[B,D] | C [Ec]3 [CE]/ [B,D]3 C/ | C6 |] %17
V:2
 x2 | C3 C x4 | x8 | x6 C2 | x8 | C3 C x4 | x8 | x15/2 C/ | C6 GG | x8 | x6 GG | x8 | x8 | x8 | %14
 x8 | C x11/2 C/ x | C6 |] %17
V:3
 [C,G,]>[C,F,] | [C,E,]3 [C,E,] [C,G,]3 [E,C] | [F,C]2 [F,C]4 [F,C]2 | %3
 [E,C]3 [C,G,] [A,,^F,]2 [D,F,]2 | [G,,G,]6 [C,G,]>[C,F,] | [C,E,]3 [C,E,] [C,G,]3 [E,C] | %6
 [F,C]2 [F,C]4 [F,C]2 | [G,D]3 G, [G,,G,]2 (F,>E,) | [C,E,]6 [G,B,][G,B,] | %9
 [E,C]3 [E,C] [G,B,]3 [G,B,] | C6 [G,B,][G,B,] | [E,C]3 [E,C] [G,B,]3 [G,B,] | C6 [C,C]>[C,G,] | %13
 [C,G,]3 [E,C] [F,C]2 [F,A,]2 | [C,C]2 [C,G,]4 [G,,G,]>[G,,F,] | %15
 E, G,2 [C,G,]/(F, [G,,F,]3) [C,E,]/ | [C,E,]6 |] %17
V:4
 x2 | x8 | x8 | x8 | x8 | x8 | x8 | x3 G, x G,,2 x | x8 | x8 | C6 x2 | x8 | C6 x2 | x8 | x8 | %15
 B,,7/2 x9/2 | x6 |] %17

